icon-themes/colibre_svg/cmd/lc_notesmasterpage.svg

<svg viewBox="0 0 24 24" xmlns="http://www.w3.org/2000/svg"><path d="m5 3v18h5.462891l.583984-2.375c2.65292-2.650194 5.298383-5.299279 7.953125-7.925781v-7.699219zm14 16.169922c-.609099.602532-1.207378 1.219823-1.810547 1.830078h1.810547z" fill="#fff"/><path d="m4 2v20h6.216797l.246094-1h-5.462891v-18h14v7.699219c.063348-.062674.126094-.126807.189453-.189453.228533-.228255.512912-.376302.810547-.451172v-8.058594zm3 6v1h1v-1zm2 0v1h8v-1zm-2 2v1h1v-1zm2 0v1h8v-1zm-2 2v1h1v-1zm2 0v1h7.691406c.103021-.10255.205558-.206096.308594-.308594v-.691406zm11 6.185547c-.333901.326988-.667648.655607-1 .984375v1.830078h-1.810547c-.329736.33361-.662488.663561-.990234 1h3.800781z" fill="#4d82b8"/><g fill="#eac282"><path d="m7 5v2h10v-2z"/><path d="m17.480469 13.611328-5.529297 5.523438-.951172 3.865234 3.806641-1.011719 5.509765-5.544922z"/><path d="m20.419922 11c-.189562 0-.378184.07172-.523438.216797l-1.673828 1.669922 2.847656 2.849609 1.710938-1.638672c.290506-.290127.290506-.756747 0-1.046875l-1.835938-1.833984c-.145254-.145064-.335828-.216797-.52539-.216797z"/></g></svg>

<svg xmlns="http://www.w3.org/2000/svg" viewBox="0 0 24 24">
  <path
     style="fill:#ffffff"
     d="M 5 3 L 5 21 L 10.462891 21 L 11.046875 18.625 C 13.699795 15.974806 16.345258 13.325721 19 10.699219 L 19 3 L 5 3 z M 19 19.169922 C 18.390901 19.772454 17.792622 20.389745 17.189453 21 L 19 21 L 19 19.169922 z "
     />
  <path
     style="fill:#4d82b8"
     d="M 4 2 L 4 22 L 10.216797 22 L 10.462891 21 L 5 21 L 5 3 L 19 3 L 19 10.699219 C 19.063348 10.636545 19.126094 10.572412 19.189453 10.509766 C 19.417986 10.281511 19.702365 10.133464 20 10.058594 L 20 2 L 4 2 z M 7 8 L 7 9 L 8 9 L 8 8 L 7 8 z M 9 8 L 9 9 L 17 9 L 17 8 L 9 8 z M 7 10 L 7 11 L 8 11 L 8 10 L 7 10 z M 9 10 L 9 11 L 17 11 L 17 10 L 9 10 z M 7 12 L 7 13 L 8 13 L 8 12 L 7 12 z M 9 12 L 9 13 L 16.691406 13 C 16.794427 12.89745 16.896964 12.793904 17 12.691406 L 17 12 L 9 12 z M 20 18.185547 C 19.666099 18.512535 19.332352 18.841154 19 19.169922 L 19 21 L 17.189453 21 C 16.859717 21.33361 16.526965 21.663561 16.199219 22 L 20 22 L 20 18.185547 z "
     />
  <path
     style="fill:#eac282"
     d="M 7,5 V 7 H 17 V 5 Z"
     />
  <path
     d="m17.480469 13.611328-5.529297 5.523438-.951172 3.865234 3.806641-1.011719 5.509765-5.544922z"
     fill="#eac282"
     />
  <path
     d="m20.419922 11c-.189562 0-.378184.07172-.523438.216797l-1.673828 1.669922 2.847656 2.849609 1.710938-1.638672c.290506-.290127.290506-.756747 0-1.046875l-1.835938-1.833984c-.145254-.145064-.335828-.216797-.52539-.216797z"
     fill="#eac282"
     />
</svg>
